X:1
T:Title
%%score { ( 1 4 5 ) | ( 2 3 ) }
L:1/8
Q:1/4=100
M:4/4
K:D
V:1 treble nm="Grand Piano"
V:4 treble 
V:5 treble 
V:2 treble 
V:3 treble 
V:1
 B2 B2 B2 B2 | [FB]>[FA] E>F G2 D2 | G2 [FA]>[FA] B2 e2 | d2 B2 [FA]4 | [GB]2 [GB]2 [GB]2 [GB]2 | %5
w: W.~H.~Doane * * *|||||
 [EB]>[FA] E>F G2 B2 | d2 B>d [Ge]2 [EG=c]2 | [DGB]2 [=CFA]2 [B,G]4 | %8
w: |||
 [A,FA]2 [A,DF]2 [DFA]2 [Fd]2 | [Gc]>[CGA] [DGB]>[Gc] [Fd]2 [DFA]2 | [DGB]2 [DGd]2 [DFA]2 [DAd]2 | %11
w: |||
 [EAc]>[Ece] [EBd]>[D^GB] [CA]4 | [DFA]2 [A,DF]2 [DFA]2 [Fd]2 | %13
w: ||
 [Gc]>[=CGA] [DGB]>[Gc] [Fd]2 [Af]2 | e>d d>B A2 [Fd]2 | [Ed]2 [Gc]2 [Fd]4 | [Bd]6 z2 | [GB]4 z4 | %18
w: |||||
 [DG]2 [DFA]>[DFA] [DGB]2 [DGB]2 | [=CG=c]2 [Gd]>[Ge] [FA]4 | [A=c]6 z2 | e2 d>d d2 [G=c]2 | %22
w: ||||
 [GB]2 [GB]>[EG=c] [DGA]2 .[=CFA]2[Q:1/4=98][Q:1/4=97][Q:1/4=95][Q:1/4=94][Q:1/4=92][Q:1/4=91][Q:1/4=89][Q:1/4=88][Q:1/4=86][Q:1/4=84][Q:1/4=83][Q:1/4=81][Q:1/4=80][Q:1/4=78][Q:1/4=77] | %23
w: |
[M:3/4] [B,DG]6 |] %24
w: |
V:2
 [G,DG]2 [G,DG]2 [G,DG]2 [G,DG]2 | [D,=C]>[D,C] [D,C]>[D,CD] [G,B,D]2 [G,B,]2 | %2
 [G,B,D]2 [D,D]>[D,D][K:treble] [G,DG]2 [G,=CG]2 | [G,B,G]2 [G,DG]2[K:bass] [D,D]4 | %4
 [G,D]2 [G,D]2 [E,C]2 [E,C]2 | [D,=C]>[D,C] [D,C]>[D,CD][K:treble] [G,B,D]2 [G,DG]2 | %6
 [G,B,G]2 [G,DG]>[G,B,G][K:bass] [=C,=C]2 C,2 | D,2 D,2 G,4 | D,2 D,2 D,2 [D,A,]2 | %9
 [A,,A,]>A,, A,,>[A,,A,] [D,A,]2 D,2 | G,2 B,,2 D,2 F,2 | z4 A,4 | D,2 D,2 D,2 [D,A,]2 | %13
 [A,,A,]>A,, A,,>[A,,A,] [D,A,]2 [D,D]2 | [G,B,G]>[G,B,G] [G,B,G]>[G,DG] [A,DF]2[K:bass] [D,A,]2 | %15
 [A,,A,]2 [A,,A,]2 [D,A,]4 | [G,D]2 G,>G, z z/ G/ z z/ A/ | D,2 D,>D, D,4 | B,,2 D,>D, G,2 =F,2 | %19
 E,2 [D,B,]>[C,^A,] [D,=A,]4 | [D,D]2 D,>D, z z/[K:treble] G/ z z/ F/ | %21
 [G,=CG]2 [G,B,G]>[G,B,G] [G,B,G]2[K:bass] [E,C]2 | [D,D]2 [D,D]>D, D,2 z D |[M:3/4] G,,6 |] %24
V:3
 x8 | x8 | x4[K:treble] x4 | x4[K:bass] x4 | x8 | x4[K:treble] x4 | x4[K:bass] x4 | x8 | x8 | x8 | %10
 x8 | E,>E, E,>E, z2 G2 | x8 | x8 | x6[K:bass] x2 | x8 | z4 G,2 =C,2 | x8 | x8 | x8 | %20
 z4 D,2[K:treble] D,2 | x6[K:bass] x2 | z4 z2 D,2 |[M:3/4] x6 |] %24
V:4
 x8 | x8 | x8 | x8 | x8 | x8 | x8 | x8 | x8 | x8 | x8 | x8 | x8 | x8 | x8 | x8 | %16
 z2 D>D z z/ B/ [Bd]>=c | D2 D>D [DFA]4 | x8 | x8 | z2 D>D z z/ B/ [DF]>A | x8 | x8 |[M:3/4] x6 |] %24
V:5
 x8 | x8 | x8 | x8 | x8 | x8 | x8 | x8 | x8 | x8 | x8 | x8 | x8 | x8 | x8 | x8 | z4 D2 E2 | x8 | %18
 x8 | x8 | z4 D2 z2 | x8 | x8 |[M:3/4] x6 |] %24

